X:839
T:Reel 839
M:4/4
K:Gmaj
L:1/8
G2Bd gdBd|cBAc BGEF|G2Bd gdBd|ecAF GFED|G2Bd gdBd|cBAc BGEF|G2Bd gdBd|ecAF G2|ef|g2ge f2fd|edef gdBd|g2fe eddg|eaaf g2ef|gbef gedf|gbef gfef|gbaf gedc|BcAF GFED|
